X:1
T:Popocatépetl, LMD
T:Popocatépetl, LMD
T:H. C. Collins, 1923
T:Public Domain Courtesy of the Cyber Hymnal™
C:H. C. Collins, 1923
Z:Public Domain
Z:Courtesy of the Cyber Hymnal™
%%score ( 1 2 ) ( 3 4 )
L:1/8
Q:1/4=93
M:6/8
K:Ab
V:1 treble 
V:2 treble 
V:3 bass 
V:4 bass 
V:1
 [CE] | [EA][EA][DF] [CE][DF][CA] | [Ec]3- [Ec]2 [EA] | [Ac][Ac][AB] [EA][EB][Ac] | %4
 [Ge]3- [Ge]2 [Ac] | [Ae][Ae][Ae] [Ac][GB][FA] | [=Ec]3- [Ec]2 [CA] | [Ec][Ec][EB] [EA][Ac][GB] | %8
 [EA]3- [EA]2 [Ac] | [Ae][Ae][Ae] [Ac][AB]A | e3- [Ae]2 ([Ac]/[GB]/) | [FA][FA][CF] [FA][FB][F=B] | %12
 [=Ec]3- [Ec]2 [_Ec] | [Ae][Ae][Ae] [Ac][AB]A | e3- [Ae]2 [EA] | [Ac][Ac][GB] [FA][Ac][GB] | %16
 A3- [EA]2 |] %17
V:2
 x | x6 | x6 | x6 | x6 | x6 | x6 | x6 | x6 | x5 A | GAB x3 | x6 | x6 | x5 A | GAB x3 | x6 | %16
 EEF x2 |] %17
V:3
 [A,,A,] | [A,,C][A,,C][A,,A,] [A,,A,][A,,A,][A,,E,] | [A,,A,]3- [A,,A,]2 [A,C] | %3
 [A,E][A,E][A,D] [A,C][G,B,][F,A,] | [E,B,]3- [E,B,]2 [A,E] | [A,C][A,C][A,C] [A,E][E,D] C/A,/ | %6
 [C,G,]3- [C,G,]2 [F,A,] | [E,A,][E,A,][E,D] [E,C][E,E][E,D] | [A,,C]3- [A,,C]2 [A,E] | %9
 [A,C][A,C][A,C] [A,E][A,D][A,C] | ([E,B,][F,E][G,D] [A,C]2) ([CE]/[E,D]/) | %11
 [F,C][F,C][F,A,] [D,D][D,D][D,F,] | [C,G,]3- [C,G,]2 A, | [A,C][A,C][A,C] [A,E][A,D][A,C] | %14
 ([E,B,][F,E][G,D] [A,C]2) [A,C] | [A,E][A,E][E,D] [F,C][E,E][E,D] | (CC=B, [A,,C]2) |] %17
V:4
 x | x6 | x6 | x6 | x6 | x5 F, | x6 | x6 | x6 | x6 | x6 | x6 | x5 A, | x6 | x6 | x6 | A,,3- x2 |] %17

